X: 1
T: Captain Campbell
R: strathspey
M: 4/4
L: 1/8
K: Amin
E<AA>B c>AB<G|D<GG>A B>dB<G|E<AA>B c>Bc<e|d<Bg>B A2 A2:|
A<aa>g e>dc<e|d<eg>e d>BG<B|A<aa>g e>dc<e|d<Bg>B A2 A2|
A<aa>g e>dc<e|d<eg>e d>BG<B|c<Ad>B e>dc<e|d<Bg>B A2 A2||


Tune 1557	Setting 14967

